assets/images/star.svg

<svg width="25" height="23" viewBox="0 0 25 23" fill="none" xmlns="http://www.w3.org/2000/svg">
<path d="M7.49844 21.8505L12.595 18.9464L17.8364 21.2161L19.1678 19.4529L17.6241 13.6279L21.2928 9.03783L22.2503 6.24953L15.6969 6.43285L12.4961 3.0705L10.3784 1.4038L7.41882 6.66442L2.96382 7.82461L1.63238 9.5878L1.68063 11.3124L6.28036 15.326L6.40579 19.8099L7.49844 21.8505Z" fill="#FDE509"/>
<path d="M5.81591 6.6C4.01233 6.85809 -0.283091 7.40736 0.306627 10.1316C0.648185 11.7139 2.06916 12.7538 3.25672 13.6619C4.72091 14.7975 5.60366 15.4372 5.3492 17.4515C5.21502 18.4519 5.20237 19.4488 5.36565 20.4548C5.80954 23.28 8.32297 22.7944 10.0995 21.5681C10.9478 20.9769 12.4357 19.0942 13.5607 19.6995C14.6448 20.2921 15.5195 21.1258 16.6819 21.6193C17.6534 22.0489 18.6966 22.1443 19.6128 21.565C20.3829 21.0728 20.4468 19.9775 20.3966 19.1484C20.2625 16.7713 17.4522 14.3722 19.5978 12.3327C20.5059 11.4629 25.8334 7.23046 22.6659 5.5888C21.4452 4.94469 20.0289 5.03967 18.698 5.28454C16.6012 5.68925 15.2837 6.41821 13.8935 3.57793C13.4061 2.58108 12.9227 1.72255 12.0916 0.998323C8.73957 -1.9255 7.63915 6.07837 5.81591 6.6ZM13.2132 6.31002C13.8803 6.96963 14.6519 7.50173 15.6129 7.5579C17.2367 7.63705 18.761 7.05457 20.3798 6.95392C23.2933 6.76168 19.6111 9.90996 18.9518 10.4959C17.158 12.0687 16.2438 13.2017 17.1753 15.5842C17.4087 16.2005 19.7293 20.4128 17.8284 20.0923C16.3211 19.8299 15.1211 18.4793 13.8175 17.7683C11.6214 16.5562 9.63677 20.0031 7.90036 20.7299C6.63151 21.2637 7.26382 16.3321 7.2935 15.9437C7.35362 15.1945 6.90717 14.2103 6.35313 13.7275C5.17559 12.6946 3.84221 11.8876 2.71714 10.7978C0.813854 8.94083 5.15443 8.55641 6.08264 8.40587C6.09615 8.40549 6.10965 8.40511 6.10926 8.39128C6.17678 8.38939 6.2439 8.37367 6.31103 8.35795C9.07482 7.6439 8.84856 5.35243 10.0008 3.06393C11.1155 0.887207 12.6711 5.7715 13.2132 6.31002Z" fill="white"/>
<path d="M8.60468 8.69532C7.97241 9.28053 7.10552 9.20789 6.44198 9.64172C6.29616 9.74269 6.30196 9.95016 6.4532 10.0428C7.2229 10.5058 8.38411 9.98881 9.00521 9.48696C9.8512 8.81271 10.0973 7.94761 10.1898 6.90686C10.199 6.75434 9.96793 6.70544 9.9039 6.83181C9.62579 7.51785 9.13126 8.19611 8.60468 8.69532Z" fill="white"/>
<path d="M8.22548 14.9489C8.03726 15.4663 7.99795 15.9934 8.01343 16.5467C8.02658 17.0169 7.94715 17.559 8.25543 17.9518C8.31177 18.0333 8.42056 18.0579 8.49926 17.9727C8.81365 17.6178 8.76115 17.1902 8.74838 16.7338C8.73097 16.1113 8.68733 15.5173 8.49515 14.9275C8.43766 14.8045 8.27601 14.8229 8.22548 14.9489Z" fill="white"/>
<path d="M15.2473 11.3748C14.6108 12.2924 14.928 13.4878 15.3725 14.4028C15.4439 14.5392 15.6179 14.479 15.6549 14.3533C15.9153 13.5155 15.5792 12.6114 16.1528 11.8617C16.7264 11.112 17.6477 10.7125 18.1241 9.86863C18.1758 9.78413 18.1055 9.6892 18.0245 9.69146C16.9566 9.67981 15.8715 10.4992 15.2473 11.3748Z" fill="white"/>
<path d="M15.9509 16.2415C16.0914 16.4314 16.4976 16.4616 16.5292 16.1423C16.5724 15.7535 16.3833 15.2743 16.001 15.1328C15.9192 15.1074 15.8394 15.1511 15.8008 15.2214C15.6338 15.5306 15.7684 15.9975 15.9509 16.2415Z" fill="white"/>
</svg>

<svg width="25" height="23" fill="none" xmlns="http://www.w3.org/2000/svg"><path d="M7.498 21.85l5.097-2.904 5.241 2.27 1.332-1.763-1.544-5.825 3.669-4.59.957-2.788-6.553.183-3.2-3.362-2.119-1.667-2.96 5.26-4.454 1.16-1.332 1.764.049 1.724 4.6 4.014.125 4.484 1.092 2.04z" fill="#FDE509"/><path d="M5.816 6.6c-1.804.258-6.1.807-5.51 3.532.342 1.582 1.763 2.622 2.95 3.53 1.465 1.135 2.348 1.775 2.093 3.79-.134 1-.147 1.997.017 3.003.444 2.825 2.957 2.34 4.734 1.113.848-.591 2.336-2.474 3.46-1.869 1.085.593 1.96 1.427 3.122 1.92.971.43 2.015.525 2.93-.054.77-.492.835-1.588.785-2.417-.134-2.377-2.945-4.776-.8-6.815.909-.87 6.236-5.103 3.069-6.744-1.22-.644-2.637-.55-3.968-.304-2.097.404-3.414 1.133-4.805-1.707-.487-.997-.97-1.855-1.801-2.58C8.74-1.925 7.639 6.078 5.816 6.6zm7.397-.29c.667.66 1.439 1.192 2.4 1.248 1.624.08 3.148-.503 4.767-.604 2.913-.192-.769 2.956-1.428 3.542-1.794 1.573-2.708 2.706-1.777 5.088.234.617 2.554 4.829.653 4.508-1.507-.262-2.707-1.613-4.01-2.324-2.197-1.212-4.181 2.235-5.918 2.962-1.268.534-.636-4.398-.607-4.786.06-.75-.386-1.734-.94-2.217-1.177-1.032-2.51-1.84-3.636-2.93-1.903-1.856 2.437-2.24 3.366-2.391.013 0 .027 0 .026-.015.068-.002.135-.017.202-.033 2.764-.714 2.538-3.006 3.69-5.294C11.116.887 12.67 5.77 13.213 6.31z" fill="#fff"/><path d="M8.605 8.695c-.633.586-1.5.513-2.163.947a.236.236 0 00.011.4c.77.464 1.931-.053 2.552-.555.846-.674 1.092-1.54 1.185-2.58.009-.153-.222-.202-.286-.075-.278.686-.773 1.364-1.3 1.863zm-.38 6.254c-.188.517-.227 1.044-.212 1.598.014.47-.066 1.012.242 1.405.057.081.166.106.244.02.315-.354.262-.782.25-1.238-.018-.623-.062-1.217-.254-1.807-.057-.122-.219-.104-.27.022zm7.022-3.574c-.636.917-.319 2.113.126 3.028.07.136.245.076.282-.05.26-.838-.076-1.742.498-2.491.573-.75 1.495-1.15 1.971-1.993.052-.085-.018-.18-.1-.178-1.067-.011-2.153.808-2.777 1.684zm.703 4.866c.141.19.548.22.58-.099.042-.388-.147-.868-.529-1.01-.082-.025-.162.02-.2.09-.167.309-.033.776.15 1.02z" fill="#fff"/></svg>
